img/general/logos/bmw_logo_black.svg

<svg width="67" height="67" viewBox="0 0 67 67" fill="none" xmlns="http://www.w3.org/2000/svg">
    <path d="M33.5 0C14.9818 0 0 14.9818 0 33.5C0 52.0182 14.9818 67 33.5 67C52.0182 67 67 52.0182 67 33.5C67 14.9818 52.0182 0 33.5 0ZM64.8256 33.5C64.8256 50.7996 50.7996 64.8256 33.5 64.8256C16.2004 64.8256 2.17439 50.7996 2.17439 33.5C2.17439 16.2004 16.2004 2.17439 33.5 2.17439C50.7996 2.17439 64.8256 16.2004 64.8256 33.5ZM33.5 13.6437V14.7429C43.8463 14.7429 52.281 23.1537 52.281 33.5239H53.3802C53.3563 22.5325 44.4675 13.6437 33.5 13.6437ZM33.5 52.281C23.1537 52.281 14.719 43.8702 14.719 33.5H13.6198C13.6198 44.4675 22.5086 53.3563 33.4761 53.3563L33.5 52.281ZM49.5571 19.3545C50.0111 19.8324 50.6562 20.6209 51.0385 21.0988L57.8245 16.8217C57.49 16.3916 56.9404 15.7225 56.5342 15.2446L52.2332 18.0642L51.9465 18.3031L52.1616 17.9925L54.0492 14.2411L52.7111 12.903L48.9358 14.7907L48.6252 15.0057L48.888 14.719L51.7314 10.4658C51.2297 10.0357 50.7518 9.65335 50.1305 9.17546L45.8295 15.9137C46.3791 16.3199 47.0959 16.9412 47.5499 17.3474L51.612 15.2685L51.8748 15.0774L51.6837 15.3402L49.5571 19.3545ZM34.169 10.8242L36.0328 6.71434L36.1523 6.35592L36.1284 6.73823L36.3195 12.234C36.9647 12.3056 37.6337 12.3773 38.3028 12.4968L37.9683 4.34879C37.0364 4.25321 36.1284 4.18153 35.1965 4.13374L33.3805 8.62589L33.3088 8.96041L33.2372 8.62589L31.4212 4.13374C30.4893 4.18153 29.5813 4.25321 28.6494 4.34879L28.3388 12.4968C29.0078 12.3773 29.6769 12.3056 30.322 12.234L30.5132 6.73823L30.4893 6.35592L30.6088 6.71434L32.4725 10.8242H34.169ZM19.1872 17.3235C20.2625 16.2004 20.8598 14.9101 19.7846 13.6676C19.2111 12.9986 18.2315 12.8552 17.419 13.1897L17.3474 13.2136L17.3713 13.1419C17.4907 12.8313 17.5624 11.8039 16.7022 11.1109C16.2721 10.7764 15.7464 10.633 15.1969 10.7047C14.1933 10.8003 13.4287 11.4932 11.3021 13.811C10.6569 14.5039 9.74893 15.627 9.17546 16.3438L14.9579 21.7917C16.8934 19.689 17.658 18.9244 19.1872 17.3235ZM11.6366 16.0093C12.8074 14.5995 14.0499 13.3092 14.5995 12.8074C14.7668 12.6402 14.9579 12.4968 15.1969 12.4251C15.5792 12.3295 15.9615 12.5924 16.0571 12.9747C16.1526 13.357 15.8898 13.7393 15.627 14.0499C15.0057 14.7429 12.7596 17.0845 12.7596 17.0845L11.6366 16.0093ZM13.9066 18.1359C13.9066 18.1359 16.1048 15.8181 16.8217 15.0774C17.1084 14.7907 17.2996 14.5995 17.4907 14.5039C17.7536 14.3844 18.0164 14.3606 18.2792 14.5278C18.5182 14.6951 18.6377 14.9579 18.566 15.2446C18.4943 15.5792 18.2315 15.8898 17.9925 16.1287C17.6819 16.4394 15.0774 19.235 15.0774 19.235L13.9066 18.1359Z" fill="black"/>
    <path d="M34 14V34H14C14 22.9531 22.9531 14 34 14ZM54 34C54 45.0469 45.0469 54 34 54V34H54Z" fill="black"/>
</svg>

<svg width="67" height="67" fill="none" xmlns="http://www.w3.org/2000/svg"><path d="M33.5 0C14.982 0 0 14.982 0 33.5S14.982 67 33.5 67 67 52.018 67 33.5 52.018 0 33.5 0zm31.326 33.5c0 17.3-14.026 31.326-31.326 31.326S2.174 50.8 2.174 33.5 16.2 2.174 33.5 2.174 64.826 16.2 64.826 33.5zM33.5 13.644v1.099c10.346 0 18.781 8.41 18.781 18.78h1.1c-.025-10.99-8.913-19.88-19.881-19.88zm0 38.637c-10.346 0-18.781-8.41-18.781-18.781h-1.1c0 10.968 8.89 19.856 19.857 19.856l.024-1.075zm16.057-32.926c.454.477 1.1 1.266 1.481 1.744l6.787-4.277a54.82 54.82 0 00-1.29-1.577l-4.302 2.82-.286.238.215-.31 1.887-3.752-1.338-1.338-3.775 1.888-.31.215.262-.287 2.843-4.253a37.17 37.17 0 00-1.6-1.29l-4.301 6.738c.55.406 1.266 1.027 1.72 1.433l4.062-2.079.263-.19-.191.262-2.127 4.015zm-15.388-8.53l1.864-4.11.12-.36-.025.383.191 5.496c.646.072 1.315.143 1.984.263l-.335-8.148a54.081 54.081 0 00-2.772-.215L33.38 8.626l-.071.334-.072-.334-1.816-4.492c-.932.048-1.84.12-2.772.215l-.31 8.148c.669-.12 1.338-.191 1.983-.263l.191-5.496-.024-.382.12.358 1.863 4.11h1.697zm-14.982 6.498c1.075-1.123 1.673-2.413.598-3.655-.574-.67-1.553-.813-2.366-.478l-.072.024.024-.072c.12-.31.191-1.338-.669-2.031a1.994 1.994 0 00-1.505-.406c-1.004.095-1.768.788-3.895 3.106-.645.693-1.553 1.816-2.127 2.533l5.783 5.448c1.935-2.103 2.7-2.868 4.23-4.469zm-7.55-1.314c1.17-1.41 2.413-2.7 2.963-3.202a1.43 1.43 0 01.597-.382c.382-.096.764.167.86.55.096.382-.167.764-.43 1.075-.621.693-2.867 3.034-2.867 3.034l-1.123-1.075zm2.27 2.127s2.198-2.318 2.915-3.059c.286-.286.478-.477.669-.573.263-.12.525-.143.788.024.24.167.359.43.287.717-.072.334-.334.645-.573.884-.311.31-2.916 3.106-2.916 3.106l-1.17-1.1z" fill="#000"/><path d="M34 14v20H14c0-11.047 8.953-20 20-20zm20 20c0 11.047-8.953 20-20 20V34h20z" fill="#000"/></svg>
